X: 3232
T: Beginner's Luck
R: reel
M: 4/4
K: Gmajor
"G"BcdB "Am"ce"D"dc|"G"BG"Am"cA "D"defe|"D"d2 AG FADd|"D"de"D7"fa "Am"gf"D"dc|
"G"BcdB "Am"ce"D"dc|"G"BG"Am"cA "D"defe|"D"d2 AG FADd|"D7"decA "G" G4:|
"G" g2 de "Dm"_fdce|"G" d2 "Am"(3efg "D"fa d2|"G"gbag "D"f2 AB|"D7"cAFA "G"Gd"D7"fa|
"G" g2 de "Dm"_fdce|"G" d2 "Am"(3efg "D"fa d2|"G"gaba "Am7"gfdc "G"Bd"D"AF "G"G4:|

